X:30
T:Going Back Again
R:reel
C:Paul S. Cranford
O:Cape Breton Island
S:http://www.cranfordpub.com
D:currently unrecorded
B:currently unpublished in book form
Z:psc, (re-formatted,updated 9/17/04)
N:
H:                                                        copyrights Cranford Publications, SOCAN
L:1/8
Q:333
M:C|
K:C
E2 DE CDEG|A(G ~G2) E(G ~G2)|EGDE CDEG|AcGE D2 CD|
E2 DE CDEG|A(G ~G2) E(G ~G2)|EGDE AEGc|edcA d2||
||cd|e(d ~d2) e(c ~c2)|acgc e(c ~c2)|e(d ~d2) edcG|Agec {c}d2 cd|
e(d ~d2) e(c ~c2)|acgc e(c ~c2)|gaeg dced|cAGE D2 CD|]
